UI/POI/SVG/education_outline_24px.svg

<svg width="24" height="24" viewBox="0 0 24 24" fill="none" xmlns="http://www.w3.org/2000/svg">
<path d="M12 2L2 9L6 12V14H18V12L20 10.5V17H22V9L12 2ZM16.8 10.4L16 11V12H8V11L7.2 10.4L5.41 9.06L12 4.44L18.59 9.06L16.8 10.4ZM16 16C16 17.0609 15.5786 18.0783 14.8284 18.8284C14.0783 19.5786 13.0609 20 12 20C10.9391 20 9.92172 19.5786 9.17157 18.8284C8.42143 18.0783 8 17.0609 8 16H6C6 17.5913 6.63214 19.1174 7.75736 20.2426C8.88258 21.3679 10.4087 22 12 22C13.5913 22 15.1174 21.3679 16.2426 20.2426C17.3679 19.1174 18 17.5913 18 16H16Z" fill="#0F1621"/>
</svg>

<svg xmlns="http://www.w3.org/2000/svg" width="24" height="24" viewBox="0 0 24 24"><rect width="24" height="24" style="fill:none"/><path d="M12,2,2,9l4,3v2H18V12l2-1.5V17h2V9Zm4.8,8.4L16,11v1H8V11l-.8-.6L5.41,9.06,12,4.44l6.59,4.62ZM16,16a4,4,0,0,1-8,0H6a6,6,0,0,0,12,0Z"/></svg>
